src/icons/solid/media/cloud.svg

<svg width="24" height="24" viewBox="0 0 24 24" fill="none" xmlns="http://www.w3.org/2000/svg">
<g clip-path="url(#clip0_1_3276)">
<path d="M22.9286 14.0559C22.7105 13.0029 22.0872 12.1003 21.1732 11.4986C20.498 11.0573 19.7086 10.8266 18.9088 10.8166C18.3894 7.55731 15.5122 5.06017 12.0013 5C9.42529 5.03009 7.08817 6.42407 5.89365 8.59026C4.59526 8.69054 3.39035 9.23209 2.47628 10.1547C1.49988 11.1375 0.970139 12.4312 1.0013 13.7951C0.990914 16.4026 2.99563 18.639 5.67552 19C5.70668 19 5.74823 19 5.77939 19H18.6802C18.8984 19 20.6434 18.9599 21.8587 17.8066C22.617 17.0845 23.0013 16.1017 23.0013 14.9183C23.0013 14.6275 22.9805 14.3367 22.9286 14.0458V14.0559Z" fill="#1D1B20"/>
</g>
<defs>
<clipPath id="clip0_1_3276">
<rect width="24" height="24" fill="white"/>
</clipPath>
</defs>
</svg>

<svg xmlns="http://www.w3.org/2000/svg" width="24" height="24" fill="none" viewBox="0 0 24 24"><g clip-path="url(#a)"><path fill="currentColor" d="M22.929 14.056a4.02 4.02 0 0 0-1.756-2.557 4.24 4.24 0 0 0-2.264-.682C18.389 7.557 15.512 5.06 12 5c-2.576.03-4.913 1.424-6.107 3.59a5.36 5.36 0 0 0-3.418 1.565c-.976.982-1.506 2.276-1.475 3.64C.991 16.403 2.996 18.64 5.676 19H18.68c.218 0 1.963-.04 3.179-1.193.758-.723 1.142-1.705 1.142-2.889 0-.29-.02-.581-.072-.872z"/></g><defs><clipPath id="a"><path fill="currentColor" d="M0 0h24v24H0z"/></clipPath></defs></svg>
